src/assets/duotone/SaveRemove.svg

<svg width="24" height="24" viewBox="0 0 24 24"  xmlns="http://www.w3.org/2000/svg">
<path opacity="0.4" d="M16 8.98987V20.3499C16 21.7999 14.96 22.4099 13.69 21.7099L9.76 19.5199C9.34 19.2899 8.66 19.2899 8.24 19.5199L4.31 21.7099C3.04 22.4099 2 21.7999 2 20.3499V8.98987C2 7.27987 3.4 5.87988 5.11 5.87988H12.89C14.6 5.87988 16 7.27987 16 8.98987Z" />
<path d="M10.0598 12.0003L10.9398 11.1203C11.2298 10.8303 11.2298 10.3503 10.9398 10.0603C10.6498 9.77027 10.1698 9.77027 9.87979 10.0603L8.99979 10.9403L8.11979 10.0603C7.82979 9.77027 7.34979 9.77027 7.05979 10.0603C6.76979 10.3503 6.76979 10.8303 7.05979 11.1203L7.93979 12.0003L7.05979 12.8803C6.76979 13.1703 6.76979 13.6503 7.05979 13.9403C7.20979 14.0903 7.39979 14.1603 7.58979 14.1603C7.77979 14.1603 7.96979 14.0903 8.11979 13.9403L8.99979 13.0603L9.87979 13.9403C10.0298 14.0903 10.2198 14.1603 10.4098 14.1603C10.5998 14.1603 10.7898 14.0903 10.9398 13.9403C11.2298 13.6503 11.2298 13.1703 10.9398 12.8803L10.0598 12.0003Z" />
<path d="M22 5.10999V16.47C22 17.92 20.96 18.53 19.69 17.83L16 15.77V8.98999C16 7.27999 14.6 5.88 12.89 5.88H8V5.10999C8 3.39999 9.4 2 11.11 2H18.89C20.6 2 22 3.39999 22 5.10999Z" />
</svg>

<?xml version="1.0" encoding="UTF-8"?>
<svg width="24" height="24" viewBox="0 0 24 24" xmlns="http://www.w3.org/2000/svg">
 <path d="m16 8.9899v11.36c0 1.45-1.04 2.06-2.31 1.36l-3.93-2.19c-0.42-0.23-1.1-0.23-1.52 0l-3.93 2.19c-1.27 0.7-2.31 0.09-2.31-1.36v-11.36c0-1.71 1.4-3.11 3.11-3.11h7.78c1.71 0 3.11 1.4 3.11 3.11z" opacity=".4"/>
 <path d="m10.06 12 0.88-0.88c0.29-0.29 0.29-0.77 0-1.06-0.29-0.29003-0.77-0.29003-1.06 0l-0.88 0.88-0.88-0.88c-0.29-0.29003-0.77-0.29003-1.06 0-0.29 0.29-0.29 0.77 0 1.06l0.88 0.88-0.88 0.88c-0.29 0.29-0.29 0.77 0 1.06 0.15 0.15 0.34 0.22 0.53 0.22s0.38-0.07 0.53-0.22l0.88-0.88 0.88 0.88c0.15001 0.15 0.34001 0.22 0.53001 0.22s0.38-0.07 0.53-0.22c0.29-0.29 0.29-0.77 0-1.06l-0.88-0.88z"/>
 <path d="m22 5.11v11.36c0 1.45-1.04 2.06-2.31 1.36l-3.69-2.06v-6.78c0-1.71-1.4-3.11-3.11-3.11h-4.89v-0.77001c0-1.71 1.4-3.11 3.11-3.11h7.78c1.71 0 3.11 1.4 3.11 3.11z"/>
</svg>
